X:51
T:Ruff and Rees. JJo.051
S:J.Jones MS,1801,N.Shrops.
A:N Shropshire
Z:Neil Brookes 2006
M:6/8
L:1/8
Q:3/8=120
K:C
c2g ece|fdc B2G”^cr in MS”|c2g ece|BGB c3::!
E2F GAB|cGF EC2|E2F GAB|cged3::!
g2e f/g/af|fdfg2e|e2c d/e/fd|BGBc3:|

